X: 94
T:Gan Ainm
M:4/4
L:1/8
S:Gerry O'Donnell, Belfast (flute)
R:Reel
D:Session tape - Milltown Malbay 1985
K:D
D2FD FAA2 | defd edAF | GE~E2 FEDF | EA,~A,2 DFEF | D2FD FAA2 | defd edAe |\
fd~d2 gfed |1 fage d2AF :|2 fage d2fg |: afdf ~g3a | bagb afdf | g2ge cdef |\
g2gb agfe | faeg fd~d2 | fa~a2 gfeg | fd~d2 gfed |1 fage d2fg :|2 fage d2AF ||\
<end>
<start>
